assets/oggetti/torta.svg

<svg width="255" height="180" viewBox="0 0 255 180" fill="none" xmlns="http://www.w3.org/2000/svg">
<rect width="255" height="180" stroke="black"/>
<path d="M53.2002 66.5234V131.535H53.2063C53.5001 141.734 83.5556 149.98 120.593 149.98C157.63 149.98 187.682 141.734 187.979 131.535H187.985V66.5234H53.2002Z" fill="#F5E5D3" stroke="black" stroke-width="3" stroke-miterlimit="10"/>
<path d="M120.593 84.968C157.813 84.968 187.985 76.6421 187.985 66.3717C187.985 56.1012 157.813 47.7754 120.593 47.7754C83.3729 47.7754 53.2002 56.1012 53.2002 66.3717C53.2002 76.6421 83.3729 84.968 120.593 84.968Z" fill="#CFAE82" stroke="black" stroke-width="3" stroke-miterlimit="10"/>
<path d="M90.573 58.0566C97.6171 58.0566 103.328 53.4699 103.328 47.812C103.328 42.154 97.6171 37.5674 90.573 37.5674C83.5288 37.5674 77.8184 42.154 77.8184 47.812C77.8184 53.4699 83.5288 58.0566 90.573 58.0566Z" fill="#F5E5D3"/>
<mask id="mask0_499_8509" style="mask-type:luminance" maskUnits="userSpaceOnUse" x="77" y="37" width="27" height="22">
<path d="M90.573 58.0566C97.6171 58.0566 103.328 53.4699 103.328 47.812C103.328 42.154 97.6171 37.5674 90.573 37.5674C83.5288 37.5674 77.8184 42.154 77.8184 47.812C77.8184 53.4699 83.5288 58.0566 90.573 58.0566Z" fill="white"/>
</mask>
<g mask="url(#mask0_499_8509)">
<path d="M78.4484 44.3135C78.4484 44.3135 81.9013 57.5698 98.5632 55.7918C97.8938 56.9196 80.2567 59.5534 82.5768 55.7918C84.3911 52.3053 87.7047 59.0423 82.5768 55.7918C75.2287 51.1321 78.4484 44.3135 78.4484 44.3135Z" fill="#CFAE82"/>
</g>
<path d="M90.573 58.0566C97.6171 58.0566 103.328 53.4699 103.328 47.812C103.328 42.154 97.6171 37.5674 90.573 37.5674C83.5288 37.5674 77.8184 42.154 77.8184 47.812C77.8184 53.4699 83.5288 58.0566 90.573 58.0566Z" stroke="black" stroke-width="3" stroke-miterlimit="10"/>
<path d="M121.165 55.3349C128.209 55.3349 133.919 50.7482 133.919 45.0903C133.919 39.4324 128.209 34.8457 121.165 34.8457C114.121 34.8457 108.41 39.4324 108.41 45.0903C108.41 50.7482 114.121 55.3349 121.165 55.3349Z" fill="#F5E5D3"/>
<mask id="mask1_499_8509" style="mask-type:luminance" maskUnits="userSpaceOnUse" x="108" y="34" width="26" height="22">
<path d="M121.165 55.3349C128.209 55.3349 133.919 50.7482 133.919 45.0903C133.919 39.4324 128.209 34.8457 121.165 34.8457C114.121 34.8457 108.41 39.4324 108.41 45.0903C108.41 50.7482 114.121 55.3349 121.165 55.3349Z" fill="white"/>
</mask>
<g mask="url(#mask1_499_8509)">
<path d="M109.04 41.5918C109.04 41.5918 112.493 54.8481 129.155 53.0701C128.486 54.198 110.848 56.8317 113.169 53.0701C114.983 49.5837 118.296 56.3207 113.169 53.0701C105.821 48.4104 109.04 41.5918 109.04 41.5918Z" fill="#CFAE82"/>
</g>
<path d="M121.165 55.3349C128.209 55.3349 133.919 50.7482 133.919 45.0903C133.919 39.4324 128.209 34.8457 121.165 34.8457C114.121 34.8457 108.41 39.4324 108.41 45.0903C108.41 50.7482 114.121 55.3349 121.165 55.3349Z" stroke="black" stroke-width="3" stroke-miterlimit="10"/>
<path d="M152.059 58.0566C159.103 58.0566 164.814 53.4699 164.814 47.812C164.814 42.154 159.103 37.5674 152.059 37.5674C145.015 37.5674 139.305 42.154 139.305 47.812C139.305 53.4699 145.015 58.0566 152.059 58.0566Z" fill="#F5E5D3"/>
<mask id="mask2_499_8509" style="mask-type:luminance" maskUnits="userSpaceOnUse" x="139" y="37" width="26" height="22">
<path d="M152.059 58.0566C159.103 58.0566 164.814 53.4699 164.814 47.812C164.814 42.154 159.103 37.5674 152.059 37.5674C145.015 37.5674 139.305 42.154 139.305 47.812C139.305 53.4699 145.015 58.0566 152.059 58.0566Z" fill="white"/>
</mask>
<g mask="url(#mask2_499_8509)">
<path d="M139.935 44.3135C139.935 44.3135 143.388 57.5698 160.05 55.7918C159.38 56.9196 141.743 59.5534 144.063 55.7918C145.877 52.3053 149.191 59.0423 144.063 55.7918C136.715 51.1321 139.935 44.3135 139.935 44.3135Z" fill="#CFAE82"/>
</g>
<path d="M152.059 58.0566C159.103 58.0566 164.814 53.4699 164.814 47.812C164.814 42.154 159.103 37.5674 152.059 37.5674C145.015 37.5674 139.305 42.154 139.305 47.812C139.305 53.4699 145.015 58.0566 152.059 58.0566Z" stroke="black" stroke-width="3" stroke-miterlimit="10"/>
<path d="M169.021 69.245C176.065 69.245 181.776 64.6584 181.776 59.0004C181.776 53.3425 176.065 48.7559 169.021 48.7559C161.977 48.7559 156.267 53.3425 156.267 59.0004C156.267 64.6584 161.977 69.245 169.021 69.245Z" fill="#F5E5D3"/>
<mask id="mask3_499_8509" style="mask-type:luminance" maskUnits="userSpaceOnUse" x="156" y="48" width="26" height="22">
<path d="M169.021 69.245C176.065 69.245 181.776 64.6584 181.776 59.0004C181.776 53.3425 176.065 48.7559 169.021 48.7559C161.977 48.7559 156.267 53.3425 156.267 59.0004C156.267 64.6584 161.977 69.245 169.021 69.245Z" fill="white"/>
</mask>
<g mask="url(#mask3_499_8509)">
<path d="M156.897 55.502C156.897 55.502 160.35 68.7582 177.011 66.9802C176.342 68.1081 158.705 70.7418 161.025 66.9802C162.839 63.4938 166.153 70.2308 161.025 66.9802C153.677 62.3206 156.897 55.502 156.897 55.502Z" fill="#CFAE82"/>
</g>
<path d="M169.021 69.245C176.065 69.245 181.776 64.6584 181.776 59.0004C181.776 53.3425 176.065 48.7559 169.021 48.7559C161.977 48.7559 156.267 53.3425 156.267 59.0004C156.267 64.6584 161.977 69.245 169.021 69.245Z" stroke="black" stroke-width="3" stroke-miterlimit="10"/>
<path d="M73.7812 34.2715C73.7812 34.2715 85.1789 50.3852 90.7066 43.0435C96.2343 35.7017 73.7812 34.2715 73.7812 34.2715Z" fill="#D5E07D" stroke="black" stroke-width="3" stroke-miterlimit="10"/>
<path d="M73.9148 69.245C80.9589 69.245 86.6694 64.6584 86.6694 59.0004C86.6694 53.3425 80.9589 48.7559 73.9148 48.7559C66.8706 48.7559 61.1602 53.3425 61.1602 59.0004C61.1602 64.6584 66.8706 69.245 73.9148 69.245Z" fill="#F5E5D3"/>
<mask id="mask4_499_8509" style="mask-type:luminance" maskUnits="userSpaceOnUse" x="61" y="48" width="26" height="22">
<path d="M73.9148 69.245C80.9589 69.245 86.6694 64.6584 86.6694 59.0004C86.6694 53.3425 80.9589 48.7559 73.9148 48.7559C66.8706 48.7559 61.1602 53.3425 61.1602 59.0004C61.1602 64.6584 66.8706 69.245 73.9148 69.245Z" fill="white"/>
</mask>
<g mask="url(#mask4_499_8509)">
<path d="M61.7902 55.502C61.7902 55.502 65.2431 68.7582 81.905 66.9802C81.2356 68.1081 63.5985 70.7418 65.9186 66.9802C67.7329 63.4938 71.0465 70.2308 65.9186 66.9802C58.5705 62.3206 61.7902 55.502 61.7902 55.502Z" fill="#CFAE82"/>
</g>
<path d="M73.9148 69.245C80.9589 69.245 86.6694 64.6584 86.6694 59.0004C86.6694 53.3425 80.9589 48.7559 73.9148 48.7559C66.8706 48.7559 61.1602 53.3425 61.1602 59.0004C61.1602 64.6584 66.8706 69.245 73.9148 69.245Z" stroke="black" stroke-width="3" stroke-miterlimit="10"/>
<path d="M55.1836 54.7816C55.1836 54.7816 73.8172 61.3493 74.0747 52.1691C74.3322 42.9858 55.1836 54.7816 55.1836 54.7816Z" fill="#D5E07D" stroke="black" stroke-width="3" stroke-miterlimit="10"/>
<path d="M102.571 83.0029C111.019 83.0029 117.867 77.5025 117.867 70.7173C117.867 63.9321 111.019 58.4316 102.571 58.4316C94.1236 58.4316 87.2754 63.9321 87.2754 70.7173C87.2754 77.5025 94.1236 83.0029 102.571 83.0029Z" fill="#F5E5D3"/>
<mask id="mask5_499_8509" style="mask-type:luminance" maskUnits="userSpaceOnUse" x="87" y="58" width="31" height="26">
<path d="M102.571 83.0029C111.019 83.0029 117.867 77.5025 117.867 70.7173C117.867 63.9321 111.019 58.4316 102.571 58.4316C94.1236 58.4316 87.2754 63.9321 87.2754 70.7173C87.2754 77.5025 94.1236 83.0029 102.571 83.0029Z" fill="white"/>
</mask>
<g mask="url(#mask5_499_8509)">
<path d="M88.0328 66.5234C88.0328 66.5234 92.1733 82.4195 112.155 80.2877C111.355 81.6424 90.2015 84.7992 92.982 80.2877C95.1567 76.1058 99.1306 84.1854 92.982 80.2877C84.171 74.6998 88.0298 66.5234 88.0298 66.5234" fill="#CFAE82"/>
</g>
<path d="M102.571 83.0029C111.019 83.0029 117.867 77.5025 117.867 70.7173C117.867 63.9321 111.019 58.4316 102.571 58.4316C94.1236 58.4316 87.2754 63.9321 87.2754 70.7173C87.2754 77.5025 94.1236 83.0029 102.571 83.0029Z" stroke="black" stroke-width="3" stroke-miterlimit="10"/>
<path d="M85.4697 76.7134C85.4697 76.7134 105.212 75.8667 102.02 67.252C98.8271 58.6372 85.4697 76.7134 85.4697 76.7134Z" fill="#D5E07D" stroke="black" stroke-width="3" stroke-miterlimit="10"/>
<path d="M138.917 83.0029C147.365 83.0029 154.213 77.5025 154.213 70.7173C154.213 63.9321 147.365 58.4316 138.917 58.4316C130.469 58.4316 123.621 63.9321 123.621 70.7173C123.621 77.5025 130.469 83.0029 138.917 83.0029Z" fill="#F5E5D3" stroke="black" stroke-width="3" stroke-miterlimit="10"/>
<path d="M92.576 45.5084C94.4997 45.5084 96.0592 43.9516 96.0592 42.0311C96.0592 40.1106 94.4997 38.5537 92.576 38.5537C90.6523 38.5537 89.0928 40.1106 89.0928 42.0311C89.0928 43.9516 90.6523 45.5084 92.576 45.5084Z" fill="#072467" stroke="black" stroke-width="3" stroke-miterlimit="10"/>
<path d="M107.393 25.9287C107.393 25.9287 112.608 44.9544 120.314 39.9319C128.016 34.9094 107.393 25.9287 107.393 25.9287Z" fill="#D5E07D" stroke="black" stroke-width="3" stroke-miterlimit="10"/>
<path d="M170.775 29.4336C170.775 29.4336 151.523 33.8876 156.248 41.7676C160.973 49.6476 170.775 29.4336 170.775 29.4336Z" fill="#D5E07D" stroke="black" stroke-width="3" stroke-miterlimit="10"/>
<path d="M186.849 51.4468C186.849 51.4468 168.833 43.3431 167.807 52.4688C166.78 61.5977 186.849 51.4468 186.849 51.4468Z" fill="#D5E07D" stroke="black" stroke-width="3" stroke-miterlimit="10"/>
<path d="M157.384 73.5806C157.384 73.5806 144.015 59.0544 139.471 67.0432C134.931 75.032 157.384 73.5806 157.384 73.5806Z" fill="#D5E07D" stroke="black" stroke-width="3" stroke-miterlimit="10"/>
<path d="M121.956 41.5768C123.88 41.5768 125.439 40.0199 125.439 38.0994C125.439 36.1789 123.88 34.6221 121.956 34.6221C120.032 34.6221 118.473 36.1789 118.473 38.0994C118.473 40.0199 120.032 41.5768 121.956 41.5768Z" fill="#072467" stroke="black" stroke-width="3" stroke-miterlimit="10"/>
<path d="M154.365 42.1822C156.289 42.1822 157.848 40.6254 157.848 38.7049C157.848 36.7844 156.289 35.2275 154.365 35.2275C152.441 35.2275 150.882 36.7844 150.882 38.7049C150.882 40.6254 152.441 42.1822 154.365 42.1822Z" fill="#072467" stroke="black" stroke-width="3" stroke-miterlimit="10"/>
<path d="M77.1287 53.6725C79.0524 53.6725 80.6119 52.1156 80.6119 50.1951C80.6119 48.2746 79.0524 46.7178 77.1287 46.7178C75.205 46.7178 73.6455 48.2746 73.6455 50.1951C73.6455 52.1156 75.205 53.6725 77.1287 53.6725Z" fill="#072467" stroke="black" stroke-width="3" stroke-miterlimit="10"/>
<path d="M103.782 68.4889C105.706 68.4889 107.265 66.932 107.265 65.0115C107.265 63.091 105.706 61.5342 103.782 61.5342C101.858 61.5342 100.299 63.091 100.299 65.0115C100.299 66.932 101.858 68.4889 103.782 68.4889Z" fill="#072467" stroke="black" stroke-width="3" stroke-miterlimit="10"/>
<path d="M136.494 68.1862C138.418 68.1862 139.977 66.6293 139.977 64.7088C139.977 62.7883 138.418 61.2314 136.494 61.2314C134.57 61.2314 133.011 62.7883 133.011 64.7088C133.011 66.6293 134.57 68.1862 136.494 68.1862Z" fill="#072467" stroke="black" stroke-width="3" stroke-miterlimit="10"/>
<path d="M166.48 52.7653C168.404 52.7653 169.963 51.2084 169.963 49.2879C169.963 47.3674 168.404 45.8105 166.48 45.8105C164.557 45.8105 162.997 47.3674 162.997 49.2879C162.997 51.2084 164.557 52.7653 166.48 52.7653Z" fill="#072467" stroke="black" stroke-width="3" stroke-miterlimit="10"/>
</svg>

<?xml version="1.0" encoding="utf-8"?>
<!-- Generator: Adobe Illustrator 28.1.0, SVG Export Plug-In . SVG Version: 6.00 Build 0)  -->
<svg version="1.1" id="Layer_1" xmlns="http://www.w3.org/2000/svg" xmlns:xlink="http://www.w3.org/1999/xlink" x="0px" y="0px"
	 viewBox="0 0 255 180" style="enable-background:new 0 0 255 180;" xml:space="preserve">
<style type="text/css">
	.st0{fill:#F5E5D3;stroke:#000000;stroke-width:3;stroke-miterlimit:10;}
	.st1{fill:#CFAE82;stroke:#000000;stroke-width:3;stroke-miterlimit:10;}
	.st2{fill:#F5E5D3;}
	.st3{fill:#FFFFFF;filter:url(#Adobe_OpacityMaskFilter);}
	.st4{mask:url(#mask0_499_8509_00000107584670838734119040000016614641580812382341_);}
	.st5{fill:#CFAE82;}
	.st6{fill:none;stroke:#000000;stroke-width:3;stroke-miterlimit:10;}
	.st7{fill:#FFFFFF;filter:url(#Adobe_OpacityMaskFilter_00000033345355642914922090000002354887169288862871_);}
	.st8{mask:url(#mask1_499_8509_00000043419328126177857800000001350787314135311273_);}
	.st9{fill:#FFFFFF;filter:url(#Adobe_OpacityMaskFilter_00000077301175405641692900000018013933820417548706_);}
	.st10{mask:url(#mask2_499_8509_00000137812783924812234990000007075026886710125743_);}
	.st11{fill:#FFFFFF;filter:url(#Adobe_OpacityMaskFilter_00000148619257095321632620000005415790896715606452_);}
	.st12{mask:url(#mask3_499_8509_00000142899072129025370100000016588151427377440946_);}
	.st13{fill:#D5E07D;stroke:#000000;stroke-width:3;stroke-miterlimit:10;}
	.st14{fill:#FFFFFF;filter:url(#Adobe_OpacityMaskFilter_00000096760898224207752130000018367040984107881354_);}
	.st15{mask:url(#mask4_499_8509_00000058587580883633194610000004575515675112538779_);}
	.st16{fill:#FFFFFF;filter:url(#Adobe_OpacityMaskFilter_00000124142360879930916890000011164500434544505216_);}
	.st17{mask:url(#mask5_499_8509_00000059273022039445113950000003634330438617882246_);}
	.st18{fill:#072467;stroke:#000000;stroke-width:3;stroke-miterlimit:10;}
</style>
<path class="st0" d="M53.2,66.5v65h0c0.3,10.2,30.3,18.4,67.4,18.4c37,0,67.1-8.2,67.4-18.4h0v-65H53.2z"/>
<path class="st1" d="M120.6,85c37.2,0,67.4-8.3,67.4-18.6c0-10.3-30.2-18.6-67.4-18.6c-37.2,0-67.4,8.3-67.4,18.6
	C53.2,76.6,83.4,85,120.6,85z"/>
<path class="st2" d="M90.6,58.1c7,0,12.8-4.6,12.8-10.2c0-5.7-5.7-10.2-12.8-10.2c-7,0-12.8,4.6-12.8,10.2
	C77.8,53.5,83.5,58.1,90.6,58.1z"/>
<defs>
	<filter id="Adobe_OpacityMaskFilter" filterUnits="userSpaceOnUse" x="77.7" y="44.3" width="20.8" height="13.4">
		<feColorMatrix  type="matrix" values="1 0 0 0 0  0 1 0 0 0  0 0 1 0 0  0 0 0 1 0"/>
	</filter>
</defs>
<mask maskUnits="userSpaceOnUse" x="77.7" y="44.3" width="20.8" height="13.4" id="mask0_499_8509_00000107584670838734119040000016614641580812382341_">
	<path class="st3" d="M90.6,58.1c7,0,12.8-4.6,12.8-10.2c0-5.7-5.7-10.2-12.8-10.2c-7,0-12.8,4.6-12.8,10.2
		C77.8,53.5,83.5,58.1,90.6,58.1z"/>
</mask>
<g class="st4">
	<path class="st5" d="M78.4,44.3c0,0,3.5,13.3,20.1,11.5c-0.7,1.1-18.3,3.8-16,0c1.8-3.5,5.1,3.3,0,0C75.2,51.1,78.4,44.3,78.4,44.3
		z"/>
</g>
<path class="st6" d="M90.6,58.1c7,0,12.8-4.6,12.8-10.2c0-5.7-5.7-10.2-12.8-10.2c-7,0-12.8,4.6-12.8,10.2
	C77.8,53.5,83.5,58.1,90.6,58.1z"/>
<path class="st2" d="M121.2,55.3c7,0,12.8-4.6,12.8-10.2s-5.7-10.2-12.8-10.2s-12.8,4.6-12.8,10.2S114.1,55.3,121.2,55.3z"/>
<defs>
	
		<filter id="Adobe_OpacityMaskFilter_00000068647349358339681390000013834068505322614923_" filterUnits="userSpaceOnUse" x="108.3" y="41.6" width="20.8" height="13.4">
		<feColorMatrix  type="matrix" values="1 0 0 0 0  0 1 0 0 0  0 0 1 0 0  0 0 0 1 0"/>
	</filter>
</defs>
<mask maskUnits="userSpaceOnUse" x="108.3" y="41.6" width="20.8" height="13.4" id="mask1_499_8509_00000043419328126177857800000001350787314135311273_">
	<path style="fill:#FFFFFF;filter:url(#Adobe_OpacityMaskFilter_00000068647349358339681390000013834068505322614923_);" d="
		M121.2,55.3c7,0,12.8-4.6,12.8-10.2s-5.7-10.2-12.8-10.2s-12.8,4.6-12.8,10.2S114.1,55.3,121.2,55.3z"/>
</mask>
<g class="st8">
	<path class="st5" d="M109,41.6c0,0,3.5,13.3,20.1,11.5c-0.7,1.1-18.3,3.8-16,0c1.8-3.5,5.1,3.3,0,0C105.8,48.4,109,41.6,109,41.6z"
		/>
</g>
<path class="st6" d="M121.2,55.3c7,0,12.8-4.6,12.8-10.2s-5.7-10.2-12.8-10.2s-12.8,4.6-12.8,10.2S114.1,55.3,121.2,55.3z"/>
<path class="st2" d="M152.1,58.1c7,0,12.8-4.6,12.8-10.2c0-5.7-5.7-10.2-12.8-10.2c-7,0-12.8,4.6-12.8,10.2
	C139.3,53.5,145,58.1,152.1,58.1z"/>
<defs>
	
		<filter id="Adobe_OpacityMaskFilter_00000121975785906413018920000002458061534201423756_" filterUnits="userSpaceOnUse" x="139.2" y="44.3" width="20.8" height="13.4">
		<feColorMatrix  type="matrix" values="1 0 0 0 0  0 1 0 0 0  0 0 1 0 0  0 0 0 1 0"/>
	</filter>
</defs>
<mask maskUnits="userSpaceOnUse" x="139.2" y="44.3" width="20.8" height="13.4" id="mask2_499_8509_00000137812783924812234990000007075026886710125743_">
	<path style="fill:#FFFFFF;filter:url(#Adobe_OpacityMaskFilter_00000121975785906413018920000002458061534201423756_);" d="
		M152.1,58.1c7,0,12.8-4.6,12.8-10.2c0-5.7-5.7-10.2-12.8-10.2c-7,0-12.8,4.6-12.8,10.2C139.3,53.5,145,58.1,152.1,58.1z"/>
</mask>
<g class="st10">
	<path class="st5" d="M139.9,44.3c0,0,3.5,13.3,20.1,11.5c-0.7,1.1-18.3,3.8-16,0c1.8-3.5,5.1,3.3,0,0
		C136.7,51.1,139.9,44.3,139.9,44.3z"/>
</g>
<path class="st6" d="M152.1,58.1c7,0,12.8-4.6,12.8-10.2c0-5.7-5.7-10.2-12.8-10.2c-7,0-12.8,4.6-12.8,10.2
	C139.3,53.5,145,58.1,152.1,58.1z"/>
<path class="st2" d="M169,69.2c7,0,12.8-4.6,12.8-10.2c0-5.7-5.7-10.2-12.8-10.2c-7,0-12.8,4.6-12.8,10.2
	C156.3,64.7,162,69.2,169,69.2z"/>
<defs>
	
		<filter id="Adobe_OpacityMaskFilter_00000075853775633564069250000015605259355112274567_" filterUnits="userSpaceOnUse" x="156.2" y="55.5" width="20.8" height="13.4">
		<feColorMatrix  type="matrix" values="1 0 0 0 0  0 1 0 0 0  0 0 1 0 0  0 0 0 1 0"/>
	</filter>
</defs>
<mask maskUnits="userSpaceOnUse" x="156.2" y="55.5" width="20.8" height="13.4" id="mask3_499_8509_00000142899072129025370100000016588151427377440946_">
	<path style="fill:#FFFFFF;filter:url(#Adobe_OpacityMaskFilter_00000075853775633564069250000015605259355112274567_);" d="
		M169,69.2c7,0,12.8-4.6,12.8-10.2c0-5.7-5.7-10.2-12.8-10.2c-7,0-12.8,4.6-12.8,10.2C156.3,64.7,162,69.2,169,69.2z"/>
</mask>
<g class="st12">
	<path class="st5" d="M156.9,55.5c0,0,3.5,13.3,20.1,11.5c-0.7,1.1-18.3,3.8-16,0c1.8-3.5,5.1,3.3,0,0
		C153.7,62.3,156.9,55.5,156.9,55.5z"/>
</g>
<path class="st6" d="M169,69.2c7,0,12.8-4.6,12.8-10.2c0-5.7-5.7-10.2-12.8-10.2c-7,0-12.8,4.6-12.8,10.2
	C156.3,64.7,162,69.2,169,69.2z"/>
<path class="st13" d="M73.8,34.3c0,0,11.4,16.1,16.9,8.8C96.2,35.7,73.8,34.3,73.8,34.3z"/>
<path class="st2" d="M73.9,69.2c7,0,12.8-4.6,12.8-10.2c0-5.7-5.7-10.2-12.8-10.2c-7,0-12.8,4.6-12.8,10.2
	C61.2,64.7,66.9,69.2,73.9,69.2z"/>
<defs>
	
		<filter id="Adobe_OpacityMaskFilter_00000060032560469940641030000005346620068099134873_" filterUnits="userSpaceOnUse" x="61.1" y="55.5" width="20.8" height="13.4">
		<feColorMatrix  type="matrix" values="1 0 0 0 0  0 1 0 0 0  0 0 1 0 0  0 0 0 1 0"/>
	</filter>
</defs>
<mask maskUnits="userSpaceOnUse" x="61.1" y="55.5" width="20.8" height="13.4" id="mask4_499_8509_00000058587580883633194610000004575515675112538779_">
	<path style="fill:#FFFFFF;filter:url(#Adobe_OpacityMaskFilter_00000060032560469940641030000005346620068099134873_);" d="
		M73.9,69.2c7,0,12.8-4.6,12.8-10.2c0-5.7-5.7-10.2-12.8-10.2c-7,0-12.8,4.6-12.8,10.2C61.2,64.7,66.9,69.2,73.9,69.2z"/>
</mask>
<g class="st15">
	<path class="st5" d="M61.8,55.5c0,0,3.5,13.3,20.1,11.5c-0.7,1.1-18.3,3.8-16,0c1.8-3.5,5.1,3.3,0,0C58.6,62.3,61.8,55.5,61.8,55.5
		z"/>
</g>
<path class="st6" d="M73.9,69.2c7,0,12.8-4.6,12.8-10.2c0-5.7-5.7-10.2-12.8-10.2c-7,0-12.8,4.6-12.8,10.2
	C61.2,64.7,66.9,69.2,73.9,69.2z"/>
<path class="st13" d="M55.2,54.8c0,0,18.6,6.6,18.9-2.6C74.3,43,55.2,54.8,55.2,54.8z"/>
<path class="st2" d="M102.6,83c8.4,0,15.3-5.5,15.3-12.3s-6.8-12.3-15.3-12.3c-8.4,0-15.3,5.5-15.3,12.3S94.1,83,102.6,83z"/>
<defs>
	
		<filter id="Adobe_OpacityMaskFilter_00000023255494822862363780000005948876310708680090_" filterUnits="userSpaceOnUse" x="87.2" y="66.5" width="25" height="16.1">
		<feColorMatrix  type="matrix" values="1 0 0 0 0  0 1 0 0 0  0 0 1 0 0  0 0 0 1 0"/>
	</filter>
</defs>
<mask maskUnits="userSpaceOnUse" x="87.2" y="66.5" width="25" height="16.1" id="mask5_499_8509_00000059273022039445113950000003634330438617882246_">
	<path style="fill:#FFFFFF;filter:url(#Adobe_OpacityMaskFilter_00000023255494822862363780000005948876310708680090_);" d="
		M102.6,83c8.4,0,15.3-5.5,15.3-12.3s-6.8-12.3-15.3-12.3c-8.4,0-15.3,5.5-15.3,12.3S94.1,83,102.6,83z"/>
</mask>
<g class="st17">
	<path class="st5" d="M88,66.5c0,0,4.1,15.9,24.1,13.8c-0.8,1.4-22,4.5-19.2,0c2.2-4.2,6.1,3.9,0,0C84.2,74.7,88,66.5,88,66.5"/>
</g>
<path class="st6" d="M102.6,83c8.4,0,15.3-5.5,15.3-12.3s-6.8-12.3-15.3-12.3c-8.4,0-15.3,5.5-15.3,12.3S94.1,83,102.6,83z"/>
<path class="st13" d="M85.5,76.7c0,0,19.7-0.8,16.6-9.5C98.8,58.6,85.5,76.7,85.5,76.7z"/>
<path class="st0" d="M138.9,83c8.4,0,15.3-5.5,15.3-12.3s-6.8-12.3-15.3-12.3c-8.4,0-15.3,5.5-15.3,12.3S130.5,83,138.9,83z"/>
<path class="st18" d="M92.6,45.5c1.9,0,3.5-1.6,3.5-3.5c0-1.9-1.6-3.5-3.5-3.5c-1.9,0-3.5,1.6-3.5,3.5C89.1,44,90.7,45.5,92.6,45.5z
	"/>
<path class="st13" d="M107.4,25.9c0,0,5.2,19,12.9,14C128,34.9,107.4,25.9,107.4,25.9z"/>
<path class="st13" d="M170.8,29.4c0,0-19.3,4.5-14.5,12.3S170.8,29.4,170.8,29.4z"/>
<path class="st13" d="M186.8,51.4c0,0-18-8.1-19,1C166.8,61.6,186.8,51.4,186.8,51.4z"/>
<path class="st13" d="M157.4,73.6c0,0-13.4-14.5-17.9-6.5C134.9,75,157.4,73.6,157.4,73.6z"/>
<path class="st18" d="M122,41.6c1.9,0,3.5-1.6,3.5-3.5c0-1.9-1.6-3.5-3.5-3.5c-1.9,0-3.5,1.6-3.5,3.5C118.5,40,120,41.6,122,41.6z"
	/>
<path class="st18" d="M154.4,42.2c1.9,0,3.5-1.6,3.5-3.5c0-1.9-1.6-3.5-3.5-3.5c-1.9,0-3.5,1.6-3.5,3.5
	C150.9,40.6,152.4,42.2,154.4,42.2z"/>
<path class="st18" d="M77.1,53.7c1.9,0,3.5-1.6,3.5-3.5c0-1.9-1.6-3.5-3.5-3.5s-3.5,1.6-3.5,3.5C73.6,52.1,75.2,53.7,77.1,53.7z"/>
<path class="st18" d="M103.8,68.5c1.9,0,3.5-1.6,3.5-3.5c0-1.9-1.6-3.5-3.5-3.5c-1.9,0-3.5,1.6-3.5,3.5
	C100.3,66.9,101.9,68.5,103.8,68.5z"/>
<path class="st18" d="M136.5,68.2c1.9,0,3.5-1.6,3.5-3.5s-1.6-3.5-3.5-3.5s-3.5,1.6-3.5,3.5S134.6,68.2,136.5,68.2z"/>
<path class="st18" d="M166.5,52.8c1.9,0,3.5-1.6,3.5-3.5c0-1.9-1.6-3.5-3.5-3.5c-1.9,0-3.5,1.6-3.5,3.5
	C163,51.2,164.6,52.8,166.5,52.8z"/>
</svg>
